svgs/dua.svg

<svg xmlns="http://www.w3.org/2000/svg" viewBox="0 0 192 192"><path d="M131.077 174.229c-19.511-3.853-52.166-3.8-82.951.135-6.897.881-7.433.764-5.764-1.26 1.012-1.228 4.586-3.562 7.942-5.186 3.356-1.625 6.4-3.438 6.766-4.029.365-.591-1.654-3.526-4.486-6.523-9.103-9.633-10.068-14.585-9.39-48.195.662-32.84 1.312-35.481 11.032-44.818 2.728-2.62 4.96-5.906 4.96-7.302 0-3.281 3.801-4.714 7.077-2.668 3.103 1.938 3.983 2.006 3.983.311 0-.709-1.18-1.664-2.621-2.121-2.465-.783-7.057-11.477-7.057-16.437 0-2.25 18.965-9.184 27.963-10.223 5.093-.589 5.218-.495 5.218 3.91 0 2.483 1.013 5.633 2.251 7.001 2.054 2.27 2.062 2.884.089 7.042-1.189 2.505-2.832 6.32-3.652 8.477-1.058 2.781-2.14 3.673-3.721 3.066-4.113-1.578-6.216 1.828-5.221 8.46.902 6.019.877 6.068-2.713 5.167-4.431-1.112-4.806.981-.513 2.864 3.406 1.494 8.601 11.093 10.02 18.513.774 4.048.354 5.152-3.004 7.9-5.541 4.533-2.662 4.005 8.538-1.567 5.323-2.648 11.383-4.815 13.467-4.816 2.766 0 4.603-1.243 6.805-4.602 3.141-4.792 11.894-11.391 13.276-10.009.438.438-.663 2.349-2.446 4.247-2.43 2.586-2.716 3.451-1.142 3.451 2.33 0 5.794-3.534 7.115-7.259.472-1.33 1.76-2.419 2.863-2.419 1.643 0 1.753.918.607 5.068-1.986 7.193-6.389 12.579-12.479 15.266-4.256 1.878-5.254 3.044-5.254 6.137 0 4.721-7.671 10.935-22.619 18.32-12.619 6.236-23.169 7.893-27.174 4.269-1.509-1.365-2.743-3.243-2.743-4.173 0-.93-1.023-2.539-2.274-3.577-2.034-1.688-2.163-1.525-1.227 1.559.575 1.895 2.648 5.156 4.606 7.247 3.892 4.158 9.544 4.917 18.174 2.442 3.759-1.078 5.242-.911 7.137.803 2.242 2.03 2.067 2.49-2.816 7.372-3.645 3.646-5.478 6.9-6.109 10.85-1.055 6.597-3.817 9.809-9.392 10.924-4.706.941-6.699 3.21-2.82 3.21 8.046 0 15.458-6.633 15.458-13.833 0-1.453 2.477-5.244 5.503-8.426 5.426-5.704 5.608-5.774 13.043-5.006 10.444 1.078 29.343 10.185 38.065 18.343 6.478 6.06 6.986 7.008 6.986 13.044 0 4.55-.761 7.198-2.529 8.797-2.92 2.643-4.6 2.668-16.827.254ZM60.082 27.987c1.428-7.764 6.069-11.191 16.003-11.817 7.365-.465 9.264-.085 12.552 2.509 2.132 1.681 3.593 3.338 3.249 3.683-.344.344-4.663 1.47-9.598 2.503-4.934 1.032-11.805 3.168-15.269 4.746-3.465 1.578-6.629 2.869-7.031 2.869-.403 0-.361-2.022.094-4.493Z"/></svg>

<svg
    xmlns="http://www.w3.org/2000/svg"
    viewBox="0 0 192 192"
    id="vector">
    <path
        id="path"
        d="M 131.077 174.229 C 111.566 170.376 78.911 170.429 48.126 174.364 C 41.229 175.245 40.693 175.128 42.362 173.104 C 43.374 171.876 46.948 169.542 50.304 167.918 C 53.66 166.293 56.704 164.48 57.07 163.889 C 57.435 163.298 55.416 160.363 52.584 157.366 C 43.481 147.733 42.516 142.781 43.194 109.171 C 43.856 76.331 44.506 73.69 54.226 64.353 C 56.954 61.733 59.186 58.447 59.186 57.051 C 59.186 53.77 62.987 52.337 66.263 54.383 C 69.366 56.321 70.246 56.389 70.246 54.694 C 70.246 53.985 69.066 53.03 67.625 52.573 C 65.16 51.79 60.568 41.096 60.568 36.136 C 60.568 33.886 79.533 26.952 88.531 25.913 C 93.624 25.324 93.749 25.418 93.749 29.823 C 93.749 32.306 94.762 35.456 96 36.824 C 98.054 39.094 98.062 39.708 96.089 43.866 C 94.9 46.371 93.257 50.186 92.437 52.343 C 91.379 55.124 90.297 56.016 88.716 55.409 C 84.603 53.831 82.5 57.237 83.495 63.869 C 84.397 69.888 84.372 69.937 80.782 69.036 C 76.351 67.924 75.976 70.017 80.269 71.9 C 83.675 73.394 88.87 82.993 90.289 90.413 C 91.063 94.461 90.643 95.565 87.285 98.313 C 81.744 102.846 84.623 102.318 95.823 96.746 C 101.146 94.098 107.206 91.931 109.29 91.93 C 112.056 91.93 113.893 90.687 116.095 87.328 C 119.236 82.536 127.989 75.937 129.371 77.319 C 129.809 77.757 128.708 79.668 126.925 81.566 C 124.495 84.152 124.209 85.017 125.783 85.017 C 128.113 85.017 131.577 81.483 132.898 77.758 C 133.37 76.428 134.658 75.339 135.761 75.339 C 137.404 75.339 137.514 76.257 136.368 80.407 C 134.382 87.6 129.979 92.986 123.889 95.673 C 119.633 97.551 118.635 98.717 118.635 101.81 C 118.635 106.531 110.964 112.745 96.016 120.13 C 83.397 126.366 72.847 128.023 68.842 124.399 C 67.333 123.034 66.099 121.156 66.099 120.226 C 66.099 119.296 65.076 117.687 63.825 116.649 C 61.791 114.961 61.662 115.124 62.598 118.208 C 63.173 120.103 65.246 123.364 67.204 125.455 C 71.096 129.613 76.748 130.372 85.378 127.897 C 89.137 126.819 90.62 126.986 92.515 128.7 C 94.757 130.73 94.582 131.19 89.699 136.072 C 86.054 139.718 84.221 142.972 83.59 146.922 C 82.535 153.519 79.773 156.731 74.198 157.846 C 69.492 158.787 67.499 161.056 71.378 161.056 C 79.424 161.056 86.836 154.423 86.836 147.223 C 86.836 145.77 89.313 141.979 92.339 138.797 C 97.765 133.093 97.947 133.023 105.382 133.791 C 115.826 134.869 134.725 143.976 143.447 152.134 C 149.925 158.194 150.433 159.142 150.433 165.178 C 150.433 169.728 149.672 172.376 147.904 173.975 C 144.984 176.618 143.304 176.643 131.077 174.229 Z M 60.082 27.987 C 61.51 20.223 66.151 16.796 76.085 16.17 C 83.45 15.705 85.349 16.085 88.637 18.679 C 90.769 20.36 92.23 22.017 91.886 22.362 C 91.542 22.706 87.223 23.832 82.288 24.865 C 77.354 25.897 70.483 28.033 67.019 29.611 C 63.554 31.189 60.39 32.48 59.988 32.48 C 59.585 32.48 59.627 30.458 60.082 27.987 Z"
        fill="#000000"
        stroke-width="12"/>
</svg>
